X:1
T:Title
%%score { ( 1 3 ) | ( 2 4 ) }
L:1/8
M:6/8
K:Ab
V:1 treble nm="Grand Piano"
V:3 treble 
V:2 bass 
V:4 bass 
V:1
 z3 z2[Q:1/4=78] [CE] | [CE][DG][DF] [CF][CE][CE] | [Ed][Ed][Ed] [Ec]2 [Ec] | %3
 [Fc][FB][DF] [=DA][DG][DA] | [DB]6 | [CE][DG][DF] [CF][CE][CE] | [Ed][Ed][Ed] [Ec]2 [Ec] | %7
 [Fc][FB][DF] GAB | [CA]6 | BBB _c>BA | GAB A3 | e>e[Be] _cBA | e-[Be-][Ae-] [Ge]3 | ece A2 B/c/ | %14
 [Fd][Fc][Fd] [A,DF]3 | [A,CE][CEA][EAc] [DEB]>[CEA][B,EG] |[M:5/8] [A,CEA]-[A,CEA]- [A,CEA]3 |] %17
V:2
 z3 z2 [A,,A,] | [A,,A,][A,,A,][A,,A,] [A,,A,][A,,A,][A,,A,] | %2
 [G,,B,][B,,G,][E,G,] [A,,A,]2 [A,,A,] | [D,F,][D,F,][D,B,] [B,,B,][B,,B,][B,,A,] | %4
 [E,G,]2 F, G,2 [E,G,D] | [A,,A,][A,,A,][A,,A,] [A,,A,][A,,A,][A,,A,] | %6
 [G,,B,][B,,G,][E,G,] [A,,A,]2 [A,,A,] | [D,F,][D,F,][B,,B,] [E,B,E][E,A,C][E,G,D] | [A,,A,]6 | %9
 [E,G,E][E,G,E][E,G,E] [E,A,E]>[E,DE][E,_CE] | [E,B,E][E,_CE][E,DE][K:treble] [A,CE]3 | %11
 [G,B,E]>[G,B,G][G,E] [A,EA][K:bass][A,DE][A,_CE] | B,D_C .B,3 | %13
 [A,CA][A,EA][A,CA] [A,CE]2 [A,G]/[A,_G]/ | [D,A,][D,A,][D,A,] D,3 | E,E,E, E,>E,E, | %16
[M:5/8] A,,-A,,- A,,3 |] %17
V:3
 x6 | x6 | x6 | x6 | z2 A, B,2 E | x6 | x6 | x6 | x6 | x6 | x6 | x6 | .G3 z3 | x6 | x6 | x6 | %16
[M:5/8] x5 |] %17
V:4
 x6 | x6 | x6 | x6 | x6 | x6 | x6 | x6 | x6 | x6 | x3[K:treble] x3 | x4[K:bass] x2 | E,6 | x6 | %14
 x6 | x6 |[M:5/8] x5 |] %17

